packages/ffe-icons/icons/open/400/sm/insert_link.svg

<svg xmlns="http://www.w3.org/2000/svg" height="20" viewBox="0 -960 960 960" width="20"><path d="M288-288q-79.68 0-135.84-56.23Q96-400.45 96-480.23 96-560 152.16-616q56.16-56 135.84-56h108q15.3 0 25.65 10.29Q432-651.42 432-636.21t-10.35 25.71Q411.3-600 396-600H288q-50 0-85 35t-35 85q0 50 35 85t85 35h108q15.3 0 25.65 10.29Q432-339.42 432-324.21t-10.35 25.71Q411.3-288 396-288H288Zm84.28-156q-15.28 0-25.78-10.29-10.5-10.29-10.5-25.5t10.34-25.71q10.34-10.5 25.62-10.5h215.76q15.28 0 25.78 10.29 10.5 10.29 10.5 25.5t-10.34 25.71Q603.32-444 588.04-444H372.28ZM564-288q-15.3 0-25.65-10.29Q528-308.58 528-323.79t10.35-25.71Q548.7-360 564-360h108q50 0 85-35t35-85q0-50-35-85t-85-35H564q-15.3 0-25.65-10.29Q528-620.58 528-635.79t10.35-25.71Q548.7-672 564-672h108q79.68 0 135.84 56.23 56.16 56.22 56.16 136Q864-400 807.84-344 751.68-288 672-288H564Z"/></svg>

<svg xmlns="http://www.w3.org/2000/svg" height="20" viewBox="0 -960 960 960" width="20"><path d="M288-288q-79.68 0-135.84-56.226t-56.16-136Q96-560 152.16-616T288-672h108q15.3 0 25.65 10.289 10.35 10.29 10.35 25.5Q432-621 421.65-610.5 411.3-600 396-600H288q-50 0-85 35t-35 85q0 50 35 85t85 35h108q15.3 0 25.65 10.289 10.35 10.29 10.35 25.5Q432-309 421.65-298.5 411.3-288 396-288H288Zm84.283-156Q357-444 346.5-454.289q-10.5-10.29-10.5-25.5Q336-495 346.338-505.5 356.677-516 371.96-516h215.757Q603-516 613.5-505.711q10.5 10.29 10.5 25.5Q624-465 613.662-454.5 603.323-444 588.04-444H372.283ZM564-288q-15.3 0-25.65-10.289-10.35-10.29-10.35-25.5Q528-339 538.35-349.5 548.7-360 564-360h108q50 0 85-35t35-85q0-50-35-85t-85-35H564q-15.3 0-25.65-10.289-10.35-10.29-10.35-25.5Q528-651 538.35-661.5 548.7-672 564-672h108q79.68 0 135.84 56.226t56.16 136Q864-400 807.84-344T672-288H564Z"/></svg>
